packages/foundations/assets/icons/functional/images/technology/wifi_28.svg

<svg width="28" height="28" viewBox="0 0 28 28" fill="none" xmlns="http://www.w3.org/2000/svg">
<g clip-path="url(#clip0_187_643)">
<path fill-rule="evenodd" clip-rule="evenodd" d="M13.9863 17.9375C15.4156 17.9375 16.625 19.1406 16.625 20.5898C16.625 22.0117 15.4156 23.1875 13.9863 23.1875C12.557 23.1875 11.375 22.0117 11.375 20.5898C11.375 19.1406 12.557 17.9375 13.9863 17.9375ZM13.9861 19.6875C13.5139 19.6875 13.125 20.0974 13.125 20.5898C13.125 21.0547 13.5139 21.4375 13.9861 21.4375C14.4583 21.4375 14.875 21.0547 14.875 20.5898C14.875 20.0976 14.4583 19.6875 13.9861 19.6875ZM1.75 11.5938C1.75 11.4024 1.80469 11.2304 1.9166 11.076C4.75213 7.16406 9.1875 4.8125 14 4.8125C18.8125 4.8125 23.2474 7.13676 26.0837 11.0759C26.1953 11.231 26.25 11.4024 26.25 11.5938C26.25 12.0586 25.8946 12.4688 25.4023 12.4688C25.129 12.4688 24.8481 12.3321 24.6673 12.0837C22.1411 8.61332 18.2109 6.5625 14 6.5625C9.76167 6.5625 5.85891 8.61332 3.3327 12.0837C3.15192 12.3321 2.87105 12.4688 2.5977 12.4688C2.10543 12.4688 1.75 12.0586 1.75 11.5938ZM5.03125 14.4102C5.03125 14.2461 5.08594 14.0501 5.19671 13.8917C7.2429 10.9649 10.5 9.1875 14 9.1875C17.4727 9.1875 20.7298 10.9649 22.7759 13.8917C22.8867 14.0501 22.9415 14.2461 22.9415 14.4102C22.9415 14.9024 22.5312 15.2852 22.0938 15.2852C21.8203 15.2852 21.5369 15.1758 21.3599 14.9265C19.5955 12.4415 16.8984 10.9375 14 10.9375C11.0742 10.9375 8.33639 12.4415 6.61876 14.9308C6.44971 15.1758 6.1523 15.2852 5.87895 15.2852C5.41406 15.2852 5.03125 14.9024 5.03125 14.4102ZM8.2852 17.0352C8.2852 16.8711 8.3398 16.7202 8.44515 16.5675C9.74348 14.6836 11.7578 13.5352 13.9727 13.5352C16.2148 13.5352 18.2292 14.6836 19.5275 16.5675C19.6328 16.7202 19.6875 16.8711 19.6875 17.0352C19.6875 17.3086 19.5234 17.6024 19.2796 17.7766C19.1307 17.8828 18.9766 17.9375 18.8125 17.9375C18.5117 17.9375 18.2408 17.7734 18.0731 17.5281C17.1196 16.1328 15.6133 15.2852 13.9727 15.2852C12.3594 15.2852 10.853 16.1328 9.89958 17.5281C9.73193 17.7734 9.43355 17.9375 9.1602 17.9375C8.69531 17.9375 8.2852 17.5274 8.2852 17.0352Z" fill="#1A1C1F"/>
</g>
<defs>
<clipPath id="clip0_187_643">
<rect width="28" height="28" fill="white"/>
</clipPath>
</defs>
</svg>

<svg xmlns="http://www.w3.org/2000/svg" width="28" height="28" fill="none"><g clip-path="url(#a)"><path fill="#1A1C1F" fill-rule="evenodd" d="M13.986 17.938c1.43 0 2.639 1.203 2.639 2.652 0 1.422-1.21 2.598-2.639 2.598s-2.611-1.176-2.611-2.598c0-1.45 1.182-2.652 2.611-2.652m0 1.75c-.472 0-.861.41-.861.902 0 .465.389.848.861.848s.889-.383.889-.848a.91.91 0 0 0-.889-.902M1.75 11.594q0-.288.167-.518C4.752 7.164 9.187 4.812 14 4.812s9.247 2.325 12.084 6.264a.86.86 0 0 1 .166.518c0 .465-.355.875-.848.875a.92.92 0 0 1-.735-.385C22.141 8.614 18.211 6.563 14 6.563c-4.238 0-8.141 2.05-10.667 5.52a.92.92 0 0 1-.735.386c-.493 0-.848-.41-.848-.875m3.281 2.816a.94.94 0 0 1 .166-.518C7.243 10.965 10.5 9.188 14 9.188c3.473 0 6.73 1.777 8.776 4.704a.94.94 0 0 1 .166.518c0 .492-.41.875-.848.875a.89.89 0 0 1-.734-.358c-1.764-2.485-4.462-3.99-7.36-3.99-2.926 0-5.664 1.505-7.381 3.994-.17.245-.467.354-.74.354a.86.86 0 0 1-.848-.875m3.254 2.625c0-.164.055-.315.16-.468 1.298-1.883 3.313-3.032 5.528-3.032 2.242 0 4.256 1.149 5.554 3.032.106.153.16.304.16.468 0 .274-.164.567-.407.742a.8.8 0 0 1-.468.16.9.9 0 0 1-.739-.409c-.953-1.395-2.46-2.243-4.1-2.243-1.614 0-3.12.848-4.073 2.243a.95.95 0 0 1-.74.41c-.465 0-.875-.41-.875-.903" clip-rule="evenodd"/></g><defs><clipPath id="a"><path fill="#fff" d="M0 0h28v28H0z"/></clipPath></defs></svg>
